findly-builder/apps/searchassist/src/assets/icons/generalsettings/carrotright.svg

<svg width="10" height="12" viewBox="0 0 10 12" fill="none" xmlns="http://www.w3.org/2000/svg">
<path fill-rule="evenodd" clip-rule="evenodd" d="M9.08912 5.44531C9.37679 5.64204 9.39371 5.95381 9.13989 6.16408L9.08912 6.20226L2.23552 10.8892C1.92987 11.0983 1.43431 11.0983 1.12866 10.8892C0.840989 10.6925 0.824067 10.3807 1.0779 10.1705L1.12866 10.1323L7.4287 5.82378L1.12866 1.51528C0.840989 1.31855 0.824067 1.00678 1.0779 0.796514L1.12866 0.758332C1.41633 0.561602 1.87223 0.550029 2.17969 0.723615L2.23552 0.758332L9.08912 5.44531Z" fill="#F8F9FA"/>
</svg>

<svg width="10" height="12" fill="none" xmlns="http://www.w3.org/2000/svg"><path fill-rule="evenodd" clip-rule="evenodd" d="M9.09 5.445c.287.197.304.509.05.72l-.05.037-6.854 4.687c-.306.21-.802.21-1.107 0-.288-.196-.305-.508-.051-.718l.05-.039 6.3-4.308-6.3-4.309c-.287-.196-.304-.508-.05-.718l.05-.039C1.417.562 1.873.55 2.18.724l.056.034 6.853 4.687Z" fill="#F8F9FA"/></svg>
